X: 1
T: G\aangl\aat (snoa) fr\aan Pite\aa
O: efter Andrea Hoag
R: g\aangl\aat, snoa
Z: John Chambers <jc@trillian.mit.edu>
M: 2/4
L: 1/16
K: Am
|: B2 \
| "Am"c2BA "E7"^G2E2 \
| "Am"A^GAB "E7"c2B2 \
| "Am"{B}c2BA "E7"^GEGB \
| "Am"A6 :|
|: B2 \
| "Am"c2Bc "Dm"d2cd \
| "Am(C)"e2e2 "Dm(G)"d3B \
| "Am"{B}c2BA "E7"^GABG \
| "Am"A6 :|
